assets/svg/action_wallet_keyserror.svg

<svg width="80" height="80" viewBox="0 0 80 80" fill="none" xmlns="http://www.w3.org/2000/svg">
<path d="M58.9973 50.0953C58.6957 50.0953 58.4504 50.3406 58.4504 50.6422V70.0953C58.4504 73.8766 55.3738 76.9531 51.5926 76.9531H28.4066C24.6254 76.9531 21.5488 73.8766 21.5488 70.0953V18.3359C21.5488 18.0344 21.3035 17.7891 21.002 17.7891C20.7004 17.7891 20.4551 18.0344 20.4551 18.3359V70.0953C20.4551 74.4797 24.0223 78.0469 28.4066 78.0469H51.5941C55.9785 78.0469 59.5457 74.4797 59.5457 70.0953V50.6422C59.5452 50.497 59.4872 50.358 59.3844 50.2555C59.2816 50.153 59.1424 50.0954 58.9973 50.0953ZM51.5941 1.95312H28.4066C24.0223 1.95312 20.4551 5.52031 20.4551 9.90469V14.6234C20.4551 14.925 20.7004 15.1703 21.002 15.1703C21.3035 15.1703 21.5488 14.925 21.5488 14.6234V9.90469C21.5488 6.12344 24.6254 3.04688 28.4066 3.04688H51.5941C55.3754 3.04688 58.452 6.12344 58.452 9.90469V21.2609C58.452 21.5625 58.6973 21.8078 58.9988 21.8078C59.3004 21.8078 59.5457 21.5625 59.5457 21.2609V9.90469C59.5441 5.52031 55.977 1.95312 51.5941 1.95312Z" fill="#9A9A9A"/>
<path d="M44.3449 8.7082C45.4699 8.7082 46.3855 7.79258 46.3855 6.66758C46.3855 5.54258 45.4699 4.62695 44.3449 4.62695H35.6543C34.5293 4.62695 33.6137 5.54258 33.6137 6.66758C33.6137 7.79258 34.5293 8.7082 35.6543 8.7082H44.3449ZM45.2918 6.66758C45.2918 7.18945 44.8668 7.61445 44.3449 7.61445H42.1371C42.7574 7.17383 43.198 6.50039 43.3355 5.72227H44.3449C44.8668 5.7207 45.2918 6.1457 45.2918 6.66758ZM30.5449 73.7723C30.5449 74.0738 30.7902 74.3191 31.0918 74.3191H48.909C49.2105 74.3191 49.4559 74.0738 49.4559 73.7723C49.4559 73.4707 49.2105 73.2254 48.909 73.2254H31.0918C30.7887 73.2254 30.5449 73.4707 30.5449 73.7723Z" fill="#9A9A9A"/>
<path fill-rule="evenodd" clip-rule="evenodd" d="M50.5705 17.01C49.0334 14.33 45.1678 14.33 43.6308 17.0099L31.0361 38.9699C29.5067 41.6366 31.4318 44.96 34.5059 44.96H59.6953C62.7694 44.96 64.6946 41.6366 63.1652 38.97L50.5705 17.01ZM49.1624 34.381C49.1551 34.5645 49.0736 34.7381 48.9351 34.8654C48.7966 34.9927 48.6118 35.0637 48.4196 35.0636H45.7832C45.3835 35.0636 45.0561 34.7614 45.0403 34.381L44.6012 23.6981C44.5972 23.6026 44.6135 23.5073 44.649 23.4179C44.6846 23.3285 44.7387 23.2469 44.8081 23.1779C44.8774 23.109 44.9607 23.0541 45.0528 23.0167C45.1449 22.9792 45.244 22.96 45.3441 22.96H48.8571C49.2789 22.96 49.6173 23.2952 49.6 23.6981L49.1624 34.381ZM48.961 39.2775C48.9537 39.4609 48.8722 39.6345 48.7336 39.7618C48.5951 39.8891 48.4103 39.9601 48.2181 39.96H45.9831C45.5834 39.96 45.256 39.6578 45.2402 39.2775L45.16 37.3216C45.156 37.2261 45.1722 37.1307 45.2078 37.0413C45.2433 36.9519 45.2974 36.8703 45.3668 36.8014C45.4362 36.7324 45.5194 36.6776 45.6115 36.6401C45.7037 36.6027 45.8027 36.5834 45.9029 36.5835H48.2968C48.7186 36.5835 49.057 36.9187 49.0397 37.3216L48.961 39.2775Z" fill="#FD4E4E"/>
<rect x="25" y="53" width="8" height="2" rx="1" fill="#E1EAF8"/>
<rect x="36" y="53" width="8" height="2" rx="1" fill="#E1EAF8"/>
<rect x="47" y="53" width="8" height="2" rx="1" fill="#E1EAF8"/>
<rect x="25" y="57" width="8" height="2" rx="1" fill="#E1EAF8"/>
<rect x="36" y="57" width="8" height="2" rx="1" fill="#E1EAF8"/>
<rect x="47" y="57" width="8" height="2" rx="1" fill="#E1EAF8"/>
<rect x="25" y="61" width="8" height="2" rx="1" fill="#E1EAF8"/>
<rect x="36" y="61" width="8" height="2" rx="1" fill="#E1EAF8"/>
<rect x="47" y="61" width="8" height="2" rx="1" fill="#E1EAF8"/>
</svg>

<svg xmlns="http://www.w3.org/2000/svg" width="80" height="80" fill="none"><path fill="#9A9A9A" d="M58.997 50.095a.547.547 0 0 0-.547.547v19.453a6.866 6.866 0 0 1-6.857 6.858H28.407a6.866 6.866 0 0 1-6.858-6.858v-51.76a.547.547 0 0 0-1.094 0v51.76c0 4.385 3.567 7.952 7.952 7.952h23.187c4.384 0 7.952-3.567 7.952-7.952V50.642a.55.55 0 0 0-.549-.547M51.594 1.953H28.407c-4.385 0-7.952 3.567-7.952 7.952v4.718a.547.547 0 0 0 1.094 0V9.905a6.866 6.866 0 0 1 6.858-6.858h23.187a6.866 6.866 0 0 1 6.858 6.858V21.26a.547.547 0 0 0 1.094 0V9.905c-.002-4.385-3.569-7.952-7.952-7.952"/><path fill="#9A9A9A" d="M44.345 8.708c1.125 0 2.04-.915 2.04-2.04s-.915-2.041-2.04-2.041h-8.69c-1.126 0-2.041.916-2.041 2.04 0 1.126.915 2.041 2.04 2.041zm.947-2.04a.95.95 0 0 1-.947.946h-2.208a2.95 2.95 0 0 0 1.199-1.892h1.009a.946.946 0 0 1 .947.946M30.545 73.772c0 .302.245.547.547.547h17.817a.548.548 0 0 0 0-1.094H31.092a.547.547 0 0 0-.547.547"/><path fill="#FD4E4E" fill-rule="evenodd" d="M50.57 17.01c-1.537-2.68-5.402-2.68-6.94 0L31.037 38.97c-1.53 2.667.396 5.99 3.47 5.99h25.19c3.073 0 4.999-3.323 3.47-5.99zm-1.408 17.371a.7.7 0 0 1-.227.484.76.76 0 0 1-.515.199h-2.637c-.4 0-.727-.303-.743-.683l-.439-10.683a.68.68 0 0 1 .207-.52.773.773 0 0 1 .536-.218h3.513c.422 0 .76.335.743.738zm-.201 4.897a.7.7 0 0 1-.227.484.76.76 0 0 1-.516.198h-2.235c-.4 0-.727-.302-.743-.682l-.08-1.956a.68.68 0 0 1 .207-.52.75.75 0 0 1 .536-.218h2.394c.422 0 .76.335.743.738z" clip-rule="evenodd"/><rect width="8" height="2" x="25" y="53" fill="#E1EAF8" rx="1"/><rect width="8" height="2" x="36" y="53" fill="#E1EAF8" rx="1"/><rect width="8" height="2" x="47" y="53" fill="#E1EAF8" rx="1"/><rect width="8" height="2" x="25" y="57" fill="#E1EAF8" rx="1"/><rect width="8" height="2" x="36" y="57" fill="#E1EAF8" rx="1"/><rect width="8" height="2" x="47" y="57" fill="#E1EAF8" rx="1"/><rect width="8" height="2" x="25" y="61" fill="#E1EAF8" rx="1"/><rect width="8" height="2" x="36" y="61" fill="#E1EAF8" rx="1"/><rect width="8" height="2" x="47" y="61" fill="#E1EAF8" rx="1"/></svg>
